X:405
T: Bobby Casey's [A]
S: "Music from Ireland 3" (Bulmer & Sharpley)
Z: B.Black
R: jig
M: 6/8
L: 1/8
K: Ador
B|c2A BAG|EAA EAA|cBc dcd|eaf ged|
c2A BAG|EAA EAA|cBc dBG|BAA A2 :|
B|cBc dcd|eaf ged|efg aba|aba ged|
|1 cBc dcd|eaf ged|cBc dBG|BAA A2 :|
|2 eab c'ba|gea ged|cBc dBG|BAA A2 ||
